X: 1399
T: Mâhur Aranağme (Senginsemâî)
C: ?
O: Turkey
F: http://compmusic.upf.edu/node/140
N: mahur--aranagme--senginsemai--1--
N: makam= mahur
N: form= aranagme
N: usul= senginsemai = 6/4
M: 6/4
L: 1/16
K: C ^9/8f   
Q: 1/4=66
%%MIDI tuningsystem comma53
d2ef gg/f/ge dBce dBcA G6z2  | d2ef gg/f/ge dBAF GBdg b6z2  | 
w:  ARANAĞME  |   | 
a3b c'3b a3g f2(3gfg e6d2  | g6e2 (3ded(3cdc (3BcB(3ABA G6z2  | 
w:   |   | 
d2ef gg/f/ge dBce dBcA G6z2  | d2ef gg/f/ge dBAF GBdg b6z2  | 
w:  ARANAĞME  |   | 
a3b c'3b a3g f2(3gfg e6d2  | g6e2 (3ded(3cdc (3BcB(3ABA G6z2  | 
w:   |   | 
|


